packages/foundations/assets/icons/functional/images/business & payment/ticket_12.svg

<svg width="12" height="12" viewBox="0 0 12 12" fill="none" xmlns="http://www.w3.org/2000/svg">
<g clip-path="url(#clip0_231_138)">
<path fill-rule="evenodd" clip-rule="evenodd" d="M3.60002 10.8H8.40002C9.05602 10.8 9.60002 10.256 9.60002 9.59995V2.39995C9.60002 1.72495 9.05602 1.19995 8.40002 1.19995H3.60002C2.94402 1.19995 2.40002 1.72495 2.40002 2.39995V9.59995C2.40002 10.256 2.94402 10.8 3.60002 10.8ZM3.60002 9.59995V2.39995H8.40002V9.59995H3.60002ZM4.20002 7.78995C4.20221 7.67159 4.23942 7.55654 4.30695 7.45931C4.37448 7.36208 4.46931 7.28704 4.57945 7.24367C4.6896 7.2003 4.81013 7.19054 4.92582 7.21561C5.04151 7.24069 5.14718 7.29949 5.22948 7.38458C5.31178 7.46967 5.36702 7.57723 5.38823 7.6937C5.40944 7.81016 5.39566 7.9303 5.34864 8.03894C5.30163 8.14758 5.22347 8.23985 5.12405 8.3041C5.02462 8.36836 4.90839 8.40171 4.79002 8.39995C4.63114 8.39654 4.48003 8.33054 4.36955 8.21631C4.25907 8.10208 4.19814 7.94886 4.20002 7.78995ZM6.59802 7.78995C6.59802 7.48595 6.86902 7.19995 7.19802 7.19995C7.52802 7.19995 7.79802 7.48595 7.79802 7.78995C7.79802 8.11395 7.52802 8.39995 7.19802 8.39995C7.03839 8.39606 6.88653 8.33024 6.77456 8.2164C6.66258 8.10256 6.59928 7.94963 6.59802 7.78995Z" fill="#1A1C1F"/>
</g>
<defs>
<clipPath id="clip0_231_138">
<rect width="12" height="12" fill="white"/>
</clipPath>
</defs>
</svg>

<svg xmlns="http://www.w3.org/2000/svg" width="12" height="12" fill="none"><g clip-path="url(#a)"><path fill="#1A1C1F" fill-rule="evenodd" d="M3.6 10.8h4.8c.656 0 1.2-.544 1.2-1.2V2.4c0-.675-.544-1.2-1.2-1.2H3.6c-.656 0-1.2.525-1.2 1.2v7.2c0 .656.544 1.2 1.2 1.2m0-1.2V2.4h4.8v7.2zm.6-1.81a.599.599 0 1 1 1.198.022A.599.599 0 0 1 4.2 7.79m2.398 0c0-.304.271-.59.6-.59.33 0 .6.286.6.59 0 .324-.27.61-.6.61a.615.615 0 0 1-.6-.61" clip-rule="evenodd"/></g><defs><clipPath id="a"><path fill="#fff" d="M0 0h12v12H0z"/></clipPath></defs></svg>
